img/svg/advantages-image-6.svg

<svg width="67" height="66" viewBox="0 0 67 66" fill="none" xmlns="http://www.w3.org/2000/svg">
<g clip-path="url(#clip0)">
<path d="M43.8548 20.6793C43.7035 20.2139 43.3009 19.8748 42.8167 19.8045L37.2231 18.9931L34.7202 13.9253C34.5035 13.4865 34.0566 13.2088 33.5674 13.2088H33.5671C33.0776 13.2089 32.6308 13.4869 32.4143 13.9259L29.9143 18.995L24.3211 19.8093C23.8367 19.8798 23.4345 20.2193 23.2834 20.6847C23.1323 21.1502 23.2586 21.6612 23.6091 22.0027L27.6576 25.9469L26.7037 31.5179C26.621 32.0003 26.8195 32.4877 27.2155 32.7754C27.4395 32.938 27.7047 33.0207 27.9711 33.0207C28.1758 33.0207 28.3814 32.9718 28.5696 32.8728L33.5718 30.2413L38.5753 32.8701C39.0085 33.0979 39.5335 33.0598 39.9294 32.7719C40.3253 32.4841 40.5235 31.9966 40.4407 31.5143L39.4838 25.9438L43.5302 21.9975C43.8803 21.6558 44.0062 21.1448 43.8548 20.6793ZM37.2042 24.5748C36.9012 24.8703 36.763 25.2959 36.8346 25.713L37.4649 29.382L34.1693 27.6506C33.7947 27.4537 33.3471 27.4538 32.9726 27.6508L29.6778 29.3841L30.3062 25.7146C30.3777 25.2975 30.2392 24.8719 29.9362 24.5766L27.2697 21.9787L30.9536 21.4424C31.3724 21.3815 31.7344 21.1183 31.9216 20.7388L33.5682 17.4001L35.2167 20.7381C35.4042 21.1175 35.7662 21.3805 36.185 21.4412L39.8692 21.9755L37.2042 24.5748Z" fill="#2D486B"/>
<path d="M62.4667 56.4939L51.8388 38.0079C55.0483 34.0016 56.9712 28.9223 56.9712 23.4016C56.9712 10.4979 46.4733 0 33.5696 0C20.6659 0 10.168 10.4979 10.168 23.4016C10.168 28.9223 12.0908 34.0016 15.3004 38.0079L4.67247 56.4939C4.42842 56.9185 4.44668 57.4449 4.71966 57.8516C4.99263 58.2582 5.4734 58.4744 5.95827 58.4093L14.2534 57.2954L17.4362 65.036C17.6227 65.4893 18.0506 65.7972 18.5397 65.8299C18.5685 65.8318 18.5972 65.8327 18.6257 65.8327C19.0828 65.8327 19.5083 65.5893 19.739 65.1898L30.4681 46.6065C30.4698 46.6037 30.4709 46.6007 30.4726 46.5977C31.4863 46.7324 32.5199 46.8031 33.5699 46.8031C34.6198 46.8031 35.6534 46.7324 36.6671 46.5977C36.6688 46.6006 36.6699 46.6035 36.6716 46.6065L47.4007 65.1898C47.6314 65.5893 48.057 65.8327 48.514 65.8327C48.5425 65.8327 48.5712 65.8318 48.6 65.8299C49.0891 65.7972 49.517 65.4893 49.7035 65.036L52.8865 57.2954L61.1816 58.4093C61.6675 58.4744 62.1472 58.2582 62.4202 57.8516C62.6924 57.4449 62.7108 56.9185 62.4667 56.4939ZM18.8196 61.6387L16.5026 56.004L18.5819 52.6109C18.953 52.0054 18.7629 51.2138 18.1575 50.8428C17.552 50.4719 16.7603 50.6618 16.3893 51.2673L14.2882 54.696L8.20251 55.5131L17.11 40.0197C20.0278 42.9098 23.6995 45.0395 27.8007 46.083L18.8196 61.6387ZM33.5695 44.2316C22.0838 44.2316 12.7395 34.8873 12.7395 23.4016C12.7395 11.9159 22.0838 2.57161 33.5695 2.57161C45.0552 2.57161 54.3995 11.9159 54.3995 23.4016C54.3995 34.8873 45.0552 44.2316 33.5695 44.2316ZM52.8508 54.696L50.7497 51.2673C50.3788 50.6618 49.5871 50.4716 48.9816 50.8428C48.3761 51.2139 48.1861 52.0054 48.5572 52.6109L50.6364 56.004L48.3194 61.6387L39.3384 46.083C43.4395 45.0395 47.1114 42.9098 50.029 40.0197L58.9366 55.5131L52.8508 54.696Z" fill="#2D486B"/>
<path d="M33.5696 6.68616C30.7002 6.68616 27.8692 7.42575 25.3826 8.82522C24.7638 9.17341 24.5444 9.95749 24.8926 10.5764C25.2408 11.1952 26.0249 11.4148 26.6437 11.0664C28.7461 9.88318 31.1411 9.25776 33.5696 9.25776C41.3685 9.25776 47.7134 15.6027 47.7134 23.4016C47.7134 25.5327 47.2517 27.5803 46.3411 29.4875C46.0352 30.1284 46.3066 30.8959 46.9475 31.2019C47.1263 31.2873 47.3148 31.3277 47.5006 31.3277C47.9805 31.3277 48.4412 31.0575 48.6618 30.5955C49.7388 28.3396 50.285 25.9192 50.285 23.4016C50.285 14.1847 42.7866 6.68616 33.5696 6.68616Z" fill="#2D486B"/>
<path d="M45.5343 33.228C45.0247 32.7335 44.2107 32.7457 43.7161 33.2552L43.6876 33.2846C43.1915 33.7926 43.2012 34.6067 43.7092 35.1028C43.9593 35.347 44.2834 35.4686 44.6073 35.4686C44.9415 35.4686 45.2756 35.3391 45.5274 35.0811L45.5614 35.0462C46.056 34.5367 46.0438 33.7226 45.5343 33.228Z" fill="#2D486B"/>
<path d="M42.1315 36.304C41.7889 35.682 41.0068 35.4556 40.3849 35.7984C38.3108 36.9414 35.954 37.5454 33.5695 37.5454C25.7706 37.5454 19.4257 31.2005 19.4257 23.4016C19.4257 21.3586 19.8514 19.3882 20.6909 17.5453C20.9854 16.899 20.7 16.1366 20.0538 15.8421C19.4075 15.5478 18.6451 15.833 18.3506 16.4792C17.3575 18.6592 16.8539 20.9881 16.8539 23.4016C16.8539 32.6185 24.3525 40.117 33.5694 40.117C36.3867 40.117 39.1726 39.4025 41.626 38.0506C42.2479 37.7078 42.4743 36.9259 42.1315 36.304Z" fill="#2D486B"/>
<path d="M23.1549 11.945C22.6353 11.4609 21.8217 11.4899 21.3377 12.0094L21.3091 12.0401C20.827 12.5614 20.8585 13.3749 21.3797 13.8571C21.627 14.086 21.9401 14.1991 22.2525 14.1991C22.5984 14.1991 22.9433 14.0604 23.1967 13.7865L23.2193 13.7622C23.7033 13.2426 23.6745 12.429 23.1549 11.945Z" fill="#2D486B"/>
</g>
<defs>
<clipPath id="clip0">
<rect x="0.65332" width="65.8327" height="65.8327" fill="white"/>
</clipPath>
</defs>
</svg>

<svg width="67" height="66" viewBox="0 0 67 66" fill="none" xmlns="http://www.w3.org/2000/svg"><g clip-path="url(#clip0)" fill="#2D486B"><path d="M43.855 20.68a1.286 1.286 0 00-1.038-.875l-5.594-.812-2.503-5.068a1.286 1.286 0 00-2.306 0l-2.5 5.07-5.593.814a1.286 1.286 0 00-.712 2.194l4.049 3.944-.954 5.57a1.286 1.286 0 001.866 1.356l5.002-2.632 5.003 2.63a1.285 1.285 0 001.866-1.357l-.957-5.57 4.046-3.947c.35-.341.476-.852.325-1.318zm-6.65 3.895a1.286 1.286 0 00-.37 1.138l.63 3.669-3.296-1.731a1.286 1.286 0 00-1.196 0l-3.295 1.733.628-3.67a1.286 1.286 0 00-.37-1.137l-2.666-2.598 3.684-.537c.418-.06.78-.324.968-.703l1.646-3.339 1.649 3.338c.187.38.55.643.968.703l3.684.535-2.665 2.599z"/><path d="M62.467 56.494L51.839 38.008a23.288 23.288 0 005.132-14.606C56.971 10.498 46.473 0 33.57 0 20.666 0 10.168 10.498 10.168 23.402c0 5.52 1.923 10.6 5.132 14.606L4.672 56.494a1.286 1.286 0 001.286 1.915l8.295-1.114 3.183 7.741a1.286 1.286 0 002.303.154l10.73-18.584.004-.008a23.502 23.502 0 006.194 0l.005.008L47.4 65.19a1.286 1.286 0 002.302-.154l3.183-7.74 8.296 1.113a1.285 1.285 0 001.285-1.915zM18.82 61.639l-2.317-5.635 2.079-3.393a1.286 1.286 0 10-2.193-1.344l-2.1 3.429-6.086.817L17.11 40.02a23.4 23.4 0 0010.69 6.063l-8.98 15.556zm14.75-17.407c-11.486 0-20.83-9.345-20.83-20.83 0-11.486 9.344-20.83 20.83-20.83 11.485 0 20.83 9.344 20.83 20.83 0 11.485-9.345 20.83-20.83 20.83zm19.28 10.464l-2.1-3.429a1.286 1.286 0 10-2.193 1.344l2.08 3.393-2.318 5.635-8.98-15.556a23.4 23.4 0 0010.69-6.063l8.908 15.493-6.086-.817z"/><path d="M33.57 6.686c-2.87 0-5.7.74-8.187 2.14a1.286 1.286 0 001.26 2.24 14.147 14.147 0 016.927-1.808c7.798 0 14.143 6.345 14.143 14.144 0 2.13-.461 4.178-1.372 6.085a1.286 1.286 0 002.32 1.109 16.567 16.567 0 001.624-7.194c0-9.217-7.498-16.716-16.715-16.716zm11.964 26.542a1.286 1.286 0 00-1.818.027l-.028.03a1.286 1.286 0 001.84 1.796l.033-.035a1.286 1.286 0 00-.027-1.818zm-3.402 3.076a1.286 1.286 0 00-1.747-.506 14.155 14.155 0 01-6.816 1.747c-7.798 0-14.143-6.345-14.143-14.143 0-2.043.425-4.014 1.265-5.857a1.286 1.286 0 10-2.34-1.066 16.583 16.583 0 00-1.497 6.923c0 9.216 7.498 16.715 16.715 16.715 2.818 0 5.604-.714 8.057-2.066a1.286 1.286 0 00.506-1.747zM23.155 11.945a1.286 1.286 0 00-1.817.064l-.029.031a1.286 1.286 0 001.888 1.747l.022-.025a1.286 1.286 0 00-.064-1.817z"/></g><defs><clipPath id="clip0"><path fill="#fff" d="M.653 0h65.833v65.833H.653z"/></clipPath></defs></svg>
